!!!COM: Bach, Johann Sebastian
!!!CDT: 1685/3//-1750/7/28/
!!!OTL@@DE: O Mensch, bewein' dein' Suende gross
!!!AGN: 4-Part Chorale
!!!SCT: BH 201
!!!SCT: BWV 402
**harm	**root	**kern	**kern	**kern	**kern
!	!	!bass	!tenor	!alto	!soprno
*	*Iorgan	*Iorgan	*Iorgan	*Iorgan	*Iorgan
*M4/4	*M4/4	*M4/4	*M4/4	*M4/4	*M4/4
*met(c)	*met(c)	*met(c)	*met(c)	*met(c)	*met(c)
*MM60	*MM60	*MM60	*MM60	*MM60	*MM60
*k[f#c#g#]	*k[f#c#g#]	*k[f#c#g#]	*k[f#c#g#]	*k[f#c#g#]	*k[f#c#g#]
*A:	*A:	*A:	*A:	*A:	*A:
*>[A,A,B]	*>[A,A,B]	*>[A,A,B]	*>[A,A,B]	*>[A,A,B]	*>[A,A,B]
*>A	*>A	*>A	*>A	*>A	*>A
I	4EE-	4A	4c#	4e	4a
=1	=1	=1	=1	=1	=1
IV	4AA-	8d	4d	[4f#	4a
.	.	8c#	.	.	.
ii	4FF	4B	4d	8f#]	4b
.	.	.	.	16e#	.
.	.	.	.	16f#	.
Vb/vi	4GG	4E#	4c#	[4g#	8cc#
.	.	.	.	.	8b
vi	4CC	[4F#	4c#	8g#]	4a
.	.	.	.	16f#	.
.	.	.	.	16g#	.
=2	=2	=2	=2	=2	=2
vi	4CC	4F#]	8f#	[4a	4cc#
.	.	.	8e	.	.
Vb/iii	4DD	4BB#	4d#	8a]	4dd#
.	.	.	.	8g#	.
iii;	4GG;	4C#;	4c#;	4g#;	4ee;
iii	4GG	4c#	4g#	[4cc#	4ee
=3	=3	=3	=3	=3	=3
IVb	8AA-	8F#	8a	8cc#]	4dd
V7b	8BB-	8G#	8e	[8b	.
I	4EE-	4A	4e	8b]	4cc#
.	.	.	.	[8a	.
V7b/V	8FF	8D#	8f#	8a]	4b
V7b/vi	8GG	8E#	8c#	8g#	.
vi	4CC	[4F#	4c#	8f#	8a
.	.	.	.	8g#	8b
=4	=4	=4	=4	=4	=4
vi	4CC	4F#]	8f#	8a	4cc#
.	.	.	8e	8g#	.
V7/V	4FF	4BB	4f#	4a	4dd#
V;	4BB-;	4E;	4e;	4g#;	4ee;
ii	4FF	8B	[4d	[4b	4ff#
.	.	8A	.	.	.
=5	=5	=5	=5	=5	=5
V7b	8BB-	8G#	8d]	8b]	4ee
Ic	8EE-	8E	4c#	16a	.
.	.	.	.	16g#	.
IVb	8AA-	8F#	.	8a	4dd
V7b	8BB-	8G#	8B	[8e	.
I	4EE-	8A	[4A	8e]	4cc#
.	.	8G#	.	16a	.
.	.	.	.	16g#	.
IVb	4AA-	8F#	8A]	[4a	4dd
.	.	8E	8e	.	.
=6	=6	=6	=6	=6	=6
ii7b	8FF	8D	8f#	8a]	2b
ii	8FF	8BB	8d	16g#	.
.	.	.	.	16f#	.
V	4BB-	4E	8B	4g#	.
.	.	.	8e	.	.
I;	4EE-;	4AA;	4c#;	4e;	4a;
!!linebreak: 3
=:|!	=:|!	=:|!	=:|!	=:|!	=:|!
*>B	*>B	*>B	*>B	*>B	*>B
I	8EE-	8AA	8c#	8ee	4aa
ii7	8FF	8BB	8d	8dd	.
=7	=7	=7	=7	=7	=7
Ib	4EE-	4C#	4e	4cc#	4aa
V7b/V	4FF	4D#	[4f#	4b	4aa
V	4BB-	8E	8f#]	4b	4gg#
.	.	8F#	16e	.	.
.	.	.	16d	.	.
V7d/IV	4EE-	4G	4c#	4a	4ee
=8	=8	=8	=8	=8	=8
IVb	4AA-	8F#	4d	8a	4ff#
.	.	8E	.	8g	.
IV	4AA-	4D	4d	4a	4ff#
I;	4EE-;	4A;	4e;	4a;	4cc#;
vi	4CC	8F#	[4f#	4cc#	4aa
.	.	8E	.	.	.
=9	=9	=9	=9	=9	=9
V7b/V	4FF	8D#	8f#]	4b	4aa
.	.	8C#	8e	.	.
V7/V	4FF	4BB	4d#	4b	4aa
V	4BB-	8E	8e	4b	4gg#
.	.	8F#	8d#	.	.
Vb	4BB-	4G#	[4e	4b	4ee
=10	=10	=10	=10	=10	=10
V7b/V/V	4CC	4A	8e]	4cc#	4ff#
.	.	.	16d#	.	.
.	.	.	16c#	.	.
V/V	4FF	4B	4d#	8b	4ff#
.	.	.	.	8a	.
V;	4BB-;	4E;	4e;	4g#;	4ee;
I	4EE-	[4A	4e	8a	8cc#
.	.	.	.	8b	8dd
=11	=11	=11	=11	=11	=11
I	4EE-	8A]	4a	4cc#	4ee
.	.	8G	.	.	.
IVb	4AA-	8F#	4a	4dd	4ff#
.	.	8G#	.	.	.
I	4EE-	4A	8a	4cc#	4ee
.	.	.	[8g	.	.
Vb/V/V	4CC	4A#	8g]	[4cc#	4cc#
.	.	.	8f#	.	.
=12	=12	=12	=12	=12	=12
V/V	4FF	4B	4f#	8cc#]	2dd
.	.	.	.	16b	.
.	.	.	.	16a	.
viioD7/vi	4BB	4E#	8g#	8b	.
.	.	.	8b	8g#	.
vi;	4CC;	4F#;	4f#;	4a;	4cc#;
IV/IV	4DD-	[4G	4d	4b	4b
!!linebreak: 3
=13	=13	=13	=13	=13	=13
V7d/IV	4EE-	4G]	4e	4a	4cc#
IVb	4AA-	4F#	4f#	4a	4dd
V	4BB-	8E	4g#	4b	4ee
.	.	8D	.	.	.
iii	4GG	4C#	8G#	4cc#	4ee
.	.	.	8A#	.	.
=14	=14	=14	=14	=14	=14
ii	4FF	4BB	4B	8f#	4dd
.	.	.	.	8g#	.
Ib	4EE-	8C#	4e	[4a	4cc#
.	.	8D	.	.	.
V;	4BB-;	4E;	4e;	8a]	4b;
.	.	.	.	8g#;	.
V	4BB-	4e	4g#	4b	4ee
=15	=15	=15	=15	=15	=15
Vb/V	4FF	4d#	4f#	4b	4ff#
V7d	4BB-	4d	[4e	4b	4gg#
Ib	4EE-	4.c#	8e]	8cc#	4aa
.	.	.	8f#	8dd#	.
iii	4GG	.	4g#	[4ee	4gg#
.	.	8B	.	.	.
=16	=16	=16	=16	=16	=16
V7b/ii	4CC	4A#	4c#	4ee]	4ff#
V7b/iii	4DD	4B#	4g#	4dd#	4ff#
iii;	4GG;	4c#;	4g#;	4cc#;	4ee;
IV	4AA-	4d	4f#	4a	4a
=17	=17	=17	=17	=17	=17
V7d	4BB-	8d	4e	4g#	4b
.	.	8c#	.	.	.
I	4EE-	8B	[4e	4a	4cc#
.	.	8A	.	.	.
V7b	8BB-	8G#	8e]	8b	4dd
V7	8BB-	8E	8B	8g#	.
I	8EE-	8A	8c#	8e	4cc#
Ib	8EE-	8C#	8e	[8a	.
=18	=18	=18	=18	=18	=18
ii7b	8FF	4D	8f#	8a]	2b
viioc	8DD	.	8d	16g#	.
.	.	.	.	16f#	.
V	4BB-	4E	8B	4g#	.
.	.	.	16e	.	.
.	.	.	16d	.	.
I;	4EE-;	4AA;	4c#;	4e;	4a;
====	====	====	====	====	====
*-	*-	*-	*-	*-	*-
!!!ONB: Change m.10, b.1 to second inversion from fourth inversion
!!chor2scor: -l 3 -s 0.6 -o %b.pmx
!!!YEC: Copyright 1994, David Huron
!!!YEC: Changes/Additions 2001 by Craig Stuart Sapp
!!!YEN: United States of America
!!!SMA: 371 Bach Chorales, edited by Ludwig Erk, C.F. Peters
!!!PDT: 1850, 1865
!!!ONB: Harmony and Root analysis done manually
